X:14403
T:MacPherson's Lament
H:
C: Trad (Collection of Scots Tunes 3, 1762)
B: Rawlins' Cross - A Turn of the Wheel (1989)
O:Kevin Fraser
Z:Kevin Fraser
Q:1/4=90
K:HP
M:4/4
L:1/4
R:March
U: R = ///
U: r = //
U: V = !accent!
V:M gstem=up stem=down name="Melody" sname="Melody" transpose=2
V:H gstem=up stem=down name="Harmony" sname="Harmony" transpose=2
V:C gstem=up stem=down name="C-Harmony" sname="C-Harmony" transpose=2
V:S gstem=up stem=down dyn=up stafflines=1 clef=perc middle=G name="Snare" sname="Snare" sname="Snare"
V:B gstem=up stem=down clef=none dyn=up name="Bass" sname="Bass"
V:T gstem=up stem=down clef=none dyn=up name="Tenor" sname="Tenor"
V:Tuba clef=bass octave=-2 transpose=2 name="Tuba" sname="Tuba"
V:BC clef=treble transpose=2 name="Brass Chord" sname="Chord 1" 
V:Trombone clef=treble transpose=2 name="Trombone" sname="Trombone" 
V:BD clef=treble transpose=2 name="Brass Chord 2" sname="Chord 2" 
V:Trumpet clef=treble transpose=2 name="Trumpet" sname="Trumpet" 
V:Guitar clef=treble transpose=2 name="Guitar" sname="Guitar" 
V:Organ clef=treble transpose=2 name="Organ" sname="Organ" 
V:Drums
%%MIDI channel 10
%%MIDI program 0
%%MIDI drummap F 36 %bass drum 1
%%MIDI drummap c 38 %acoustic snare
%%MIDI drummap ^D 44 %pedal hi-hat
%%MIDI drummap ^f 51 %ride cymbal 1
%%MIDI drummap ^g 42 %closed hi hat
%%MIDI drummap ^a 49 %crash cymbal 1
%%MIDI drummap ^b 52 %chinese cymbal
%%MIDI drummap e 50 %high tom
%%MIDI drummap d 48 %hi mid tom
%%MIDI drummap B 45 %low tom
%%MIDI drummap A 41 %low floor tom
%%MIDI Channel 10
% %MIDI gchord off
%%MIDI gracedivider 40
I:linebreak $
% %score {M H Trumpet Trombone Tuba}
% %score {M Tuba}
% % %--------- 
% %score {M}
% %scale 0.7 
% %landscape
% % %-----
%%MIDI vol 100
V:M
%%MIDI program 109
V:Tuba
%%MIDI program 59
V:Trumpet
%%MIDI program 66
V:Trombone
%%MIDI program 58
V:M
X |  !p!z z z {g}A/B/[|: "D"{Gdc}d {e}A {gfg}f   {g}e/d/   | "Gm"{g}e/d/ {g}e/f/ "A"{gef}e "Am"{g}A/B/ | "Bm"{Gdc}d  {e}A {gfg}f    {g}e/d/ | "G"{gBd}B3 {g}A/B/ | $
w:           hen o | tra un chete he a | he a he ve  hete hen o | tra un chete he a | hoto hen o |
V:M
           "D"{Gdc}d {e}A {gfg}f   {g}e/d/   | "G"{g}e/d/ {g}e/f/ "A"{gef}e {g}A/B/ | "E"{Gdc}(d d/)f/ {gef}e/d/ {g}B    | {G}A3           | $ 
w:           tra un chete he a | he a he ve  hete hen o | tra - ve hete a ho  | ren |
V:M
 {g}f/g/ | "D"{ag}(a a/)f/ {gf}g/f/ {gef}e/d/ | "A"{gfg}f  e       {A}e   {g}f/g/ | "Bm"{ag}(a  a/)f/ {gef}e    d       | "G"{gBd}B3 {g}f/g/ | $
w: che di | chili - ve viri ve hete a  | chete e ende che di | chili - ve hete a | hoto che di
V:M
         | "D"{ag}(a a/)f/ {gf}g/f/ {gef}e/d/ | "A"{gfg}f  e       {A}e   {g}A/B/ | "Em"{Gdc}(d d/)f/ {gef}e/d/ {g}B    | [1"A"{G}A3 {g}A/B/ :| [2 {Gdc}d4 |]  $
w: | chili - ve viri ve hete a  | chete e ende hen o | tra - ve hete a ho  | ren hen o  | tra
V:M
V:Tuba
X | [K:Amix] !f!z2 z2  z2 z2 [|:   D4  D4 | G4    A4 | B4   B4 | G6 A2 |
           D4 D4 | G4  A4 | E4   E4 | A6  |
 A2 | D4  D4 | A4 A4 | B4   B4 | G4  G4 | 
        D4  D4 | A4 A4 | E4  E4 | [1 A8 :| [2 d8 |]
V:Organ
%%MIDI program 19
[K:Amix]
X |  !mf!z2 z2  z2 z2 [|:   [DFA]4  [DFA]4 | [GBd]4    [Ace]2 [Ace]2| [Bdf]4   [Bdf]4 | [GBd]6 [Ace]2 |
           [DFA]4 [DFA]4 | [GBd]4  [Ace]4 | [E^GB]4   [E^GB]4 | [Ace]6  |
 [Ace]2 | [DFA]4  [DFA]4 | [Ace]4 [Ace]4 | [Bdf]4   [Bdf]4 | [GBd]4  [GBd]4 | 
        [DFA]4  [DFA]4 | [Ace]4 [Ace]4 | [EGB]4  [EGB]4 | [1 [Ace]8 :| [2 [DFA]8 |]
V:Drums
[K:C clef=perc]!f!^g2 ^g2 ^g2 ^g2  |  ^g2 ^g2 ^g2 ^g2 
[|: [F^g]^g [c^g]^g [F^g]^g [c^g]^g | [F^g]^g [c^g]^g [F^g]^g [c^g]^g | [F^g]^g [c^g]^g [F^g]^g [c^g]^g | [F^g]^g [c^g]^g [F^g]^g [c^g]^g |
        [F^g]^g [c^g]^g [F^g]^g [c^g]^g | [F^g]^g [c^g]^g [F^g]^g [c^g]^g | [F^g]^g [c^g]^g [F^g]^g [c^g]^g | [F^ge][^ge] [c^gd][^gd] [F^gB][^gB]  |
    [Ac^a][^gA]  |   [F^g]^g [c^g]^g [F^g]^g [c^g]^g | [F^g]^g [c^g]^g [F^g]^g [c^g]^g | [F^g]^g [c^g]^g [F^g]^g [c^g]^g | [F^g]^g [c^g]^g [F^g]^g [c^g]^g |
        [F^g]^g [c^g]^g [F^g]^g [c^g]^g | [F^g]^g [c^g]^g [F^g]^g [c^g]^g | [F^g]^g [c^g]^g [F^g]^g [c^g]^g | [1 [F^ge][^ge] [c^gd][^gd] [F^gB][^gB][Ac^a][^gA]  :| [2 [F^gc][^gc] c/c/c [F^a]2 z2  |]
W: Jamie Macpherson (1675 - 1700) also known as James Macpherson was a Scottish outlaw, 
W: famed for his poetic work commonly called "Macpherson's Lament" said to have been composed 
W: by him on the eve of his execution. "Macpherson's Lament" is known also was "Macpherson's Rant" or "Macpherson's Farewell".
W:
W: Performed by Rawlins' Cross - A Turn of the Wheel (1989)
W:
W: ASPD plays this as a slow solo, followed by the band playing it twice through as a march.


